Sources/FrostedUI/Resources/Icons.xcassets/arrowDownAngleRight20.imageset/arrow-down-angle-right-20.svg

<svg width="20" height="20" viewBox="0 0 20 20" fill="none" xmlns="http://www.w3.org/2000/svg" data-fui-icon="true">
  <path
    d="M1.75 3C1.33579 3 1 3.33579 1 3.75V10.6875C1 11.9647 2.03534 13 3.3125 13H16.3535L13.7373 15.4531C13.4351 15.7364 13.4198 16.2105 13.7031 16.5127C13.9864 16.8149 14.4605 16.8302 14.7627 16.5469L18.7627 12.7969C18.9139 12.6551 19 12.4573 19 12.25C19 12.0427 18.9139 11.8449 18.7627 11.7031L14.7627 7.95312C14.4605 7.66983 13.9864 7.68512 13.7031 7.9873C13.4198 8.28949 13.4351 8.76358 13.7373 9.04688L16.3535 11.5H3.3125C2.86377 11.5 2.5 11.1362 2.5 10.6875V3.75C2.5 3.33579 2.16421 3 1.75 3Z"
    fill="currentColor"
  />
</svg>

<svg xmlns="http://www.w3.org/2000/svg" width="20" height="20" fill="none" data-fui-icon="true" viewBox="0 0 20 20"><path fill="currentColor" d="M1.75 3a.75.75 0 0 0-.75.75v6.938A2.31 2.31 0 0 0 3.313 13h13.04l-2.616 2.453a.75.75 0 1 0 1.026 1.094l4-3.75a.75.75 0 0 0 0-1.094l-4-3.75a.75.75 0 1 0-1.026 1.094l2.617 2.453H3.313a.813.813 0 0 1-.813-.812V3.75A.75.75 0 0 0 1.75 3"/></svg>
